img/icon-support-yellow.svg

<svg width="48" height="48" viewBox="0 0 48 48" fill="none" xmlns="http://www.w3.org/2000/svg">
<path d="M15.8087 2.97912C15.8985 2.97879 15.9875 2.96204 16.0713 2.93023C16.2963 2.84518 16.5236 2.76381 16.7537 2.68645H16.754C17.1465 2.55385 17.3571 2.12825 17.2245 1.73578C17.0919 1.34332 16.6663 1.1327 16.2738 1.26497C16.0237 1.34735 15.7813 1.43375 15.5462 1.52382C15.2083 1.65207 15.0097 2.00299 15.074 2.35861C15.1383 2.71456 15.4474 2.97374 15.8087 2.97542L15.8087 2.97912Z" fill="#FEF288"/>
<path d="M0.13589 21.2405C0.105753 21.4906 0.0809733 21.7468 0.0608824 22.0093C0.0260573 22.4158 0.322741 22.7758 0.728588 22.8193H0.792211C1.19002 22.8264 1.52388 22.522 1.55367 22.1255C1.57376 21.8754 1.59754 21.6343 1.625 21.4016C1.67255 20.9873 1.37553 20.613 0.960977 20.5654C0.546763 20.5179 0.172393 20.8149 0.124842 21.2291L0.13589 21.2405Z" fill="#FEF288"/>
<path d="M2.60336 15.5753C2.90339 15.5757 3.17496 15.3972 3.2935 15.1213C3.3886 14.8986 3.48738 14.6776 3.58984 14.4576C3.76464 14.0815 3.6019 13.6348 3.22586 13.46C2.85015 13.2849 2.40345 13.448 2.2283 13.8237C2.11812 14.0587 2.01198 14.2948 1.90951 14.5326C1.81106 14.7646 1.83618 15.0308 1.97581 15.2408C2.11545 15.4504 2.35118 15.5763 2.60333 15.5753L2.60336 15.5753Z" fill="#FEF288"/>
<path d="M0.886064 17.4453C0.816079 17.6954 0.749781 17.9452 0.687161 18.1954H0.687496C0.584028 18.5972 0.825792 19.0071 1.22762 19.1106C1.62945 19.214 2.03897 18.9723 2.14246 18.5704C2.20005 18.3354 2.26233 18.1016 2.32998 17.8692C2.44316 17.4704 2.21144 17.0559 1.81262 16.943C1.41381 16.8298 0.999253 17.0615 0.886039 17.4604L0.886064 17.4453Z" fill="#FEF288"/>
<path d="M13.7385 3.11029C13.5446 2.74731 13.0943 2.60834 12.7296 2.79888L12.5347 2.90771L13.4796 4.08168C13.8021 3.87206 13.9139 3.45249 13.7384 3.11027L13.7385 3.11029Z" fill="#FEF288"/>
<path d="M2.11603 29.3368C2.05844 29.1017 2.00486 28.8656 1.95463 28.6279C1.92249 28.425 1.80864 28.2442 1.63953 28.1276C1.47043 28.0111 1.26114 27.9689 1.0599 28.0111C0.858982 28.0533 0.683858 28.1759 0.576035 28.3506C0.467878 28.5254 0.436401 28.7367 0.488306 28.9353C0.540879 29.1854 0.597132 29.4352 0.657078 29.6854C0.755523 30.0882 1.16204 30.335 1.56489 30.2369C1.96772 30.1384 2.2145 29.7319 2.11606 29.3291L2.11603 29.3368Z" fill="#FEF288"/>
<path d="M4.55434 35.362C4.332 35.0395 3.89937 34.9424 3.56047 35.1386C3.22193 35.3352 3.091 35.7591 3.26044 36.112C3.39036 36.3347 3.5243 36.5547 3.6616 36.772C3.89734 37.0663 4.31457 37.14 4.63704 36.9445C4.95917 36.7486 5.08575 36.3441 4.93305 35.9995C4.80313 35.7846 4.67689 35.5719 4.55433 35.362L4.55434 35.362Z" fill="#FEF288"/>
<path d="M3.2529 32.7754C3.16049 32.5527 3.07041 32.329 2.98301 32.104H2.98268C2.91537 31.9128 2.77339 31.7571 2.58923 31.6724C2.40506 31.5876 2.19443 31.581 2.00524 31.6539C1.81605 31.7269 1.66469 31.8736 1.58533 32.0601C1.50597 32.2466 1.5053 32.4573 1.58399 32.6441C1.67641 32.8815 1.76649 33.1253 1.85388 33.3754C2.01964 33.7619 2.467 33.9407 2.85341 33.7749C3.03893 33.6952 3.18526 33.5452 3.25993 33.3577C3.33494 33.1705 3.33226 32.9609 3.2529 32.7754L3.2529 32.7754Z" fill="#FEF288"/>
<path d="M26.7787 1.67412C27.0289 1.70426 27.2686 1.73775 27.4987 1.77525H27.6149L27.6152 1.77558C28.0294 1.8074 28.3914 1.49765 28.4232 1.08344C28.4554 0.669225 28.1456 0.307242 27.7314 0.27543C27.4813 0.235583 27.2315 0.199084 26.9813 0.166605C26.5671 0.115707 26.1901 0.410384 26.1395 0.824598C26.0886 1.23915 26.3833 1.61587 26.7975 1.66676L26.7787 1.67412Z" fill="#FEF288"/>
<path d="M45.3584 16.9731C45.4335 17.2031 45.5048 17.4345 45.5721 17.6669C45.6873 18.0667 46.1045 18.2978 46.5043 18.1826C46.9038 18.0677 47.1349 17.6505 47.02 17.2507C46.9473 17.0005 46.8713 16.7507 46.7913 16.5006H46.791C46.6617 16.1071 46.2378 15.8928 45.844 16.0224C45.4505 16.152 45.2366 16.5759 45.3658 16.9694L45.3584 16.9731Z" fill="#FEF288"/>
<path d="M42.4583 11.1534C42.6957 11.493 43.1632 11.576 43.5031 11.3389C43.6661 11.2251 43.7773 11.051 43.8122 10.8551C43.847 10.6592 43.8024 10.4576 43.6886 10.2945C43.5409 10.0819 43.3899 9.87327 43.2349 9.66834C42.9874 9.33583 42.5173 9.26685 42.1848 9.51431C41.8522 9.7621 41.7833 10.2322 42.0311 10.5644C42.176 10.772 42.3184 10.9682 42.4583 11.1534H42.4583Z" fill="#FEF288"/>
<path d="M44.2819 14.2809C44.461 14.6546 44.9094 14.8124 45.2831 14.6332C45.4626 14.5472 45.6005 14.3935 45.6668 14.2056C45.7328 14.0177 45.7218 13.8115 45.6357 13.632C45.5232 13.3996 45.4083 13.1696 45.2908 12.9419H45.2905C45.0989 12.5742 44.6455 12.4315 44.2779 12.6231C43.9102 12.8146 43.7676 13.268 43.9591 13.6356C44.0693 13.8483 44.1768 14.0632 44.2819 14.2809L44.2819 14.2809Z" fill="#FEF288"/>
<path d="M46.8355 19.6393C46.4266 19.703 46.1463 20.0857 46.2089 20.4946C46.2464 20.7447 46.2803 20.9845 46.3101 21.2145H46.3104C46.358 21.5919 46.6801 21.8738 47.0605 21.8708H47.1542C47.3515 21.8467 47.5313 21.7449 47.6535 21.5879C47.7761 21.4311 47.831 21.2319 47.8069 21.0347C47.7744 20.7845 47.7382 20.5347 47.6981 20.2846C47.6723 20.0833 47.5658 19.9009 47.4034 19.7793C47.2406 19.6578 47.0357 19.6075 46.8355 19.6393H46.8355Z" fill="#FEF288"/>
<path d="M6.63153 38.3318C6.36398 38.0258 5.90121 37.9882 5.58811 38.2474C5.27502 38.5069 5.22545 38.9684 5.47626 39.2882C5.64135 39.4858 5.80877 39.682 5.97888 39.8769V39.8772C6.25346 40.1879 6.72762 40.2171 7.03834 39.9428C7.34908 39.6683 7.37855 39.1941 7.10397 38.8834C6.9439 38.7109 6.78653 38.5271 6.63149 38.3319L6.63153 38.3318Z" fill="#FEF288"/>
<path d="M23.1297 1.50162H23.1558H23.8798C24.294 1.50162 24.6298 1.16576 24.6298 0.751542C24.6298 0.337328 24.294 0.00146484 23.8798 0.00146484H23.1073H23.1069C22.6927 0.00883171 22.3629 0.350384 22.3702 0.764598C22.3773 1.17881 22.7192 1.50898 23.1334 1.50162H23.1297Z" fill="#FEF288"/>
<path d="M30.3261 2.40898C30.5585 2.47662 30.7899 2.54895 31.0199 2.62664C31.4147 2.75389 31.8376 2.53757 31.9652 2.14278C32.0924 1.74831 31.8758 1.32506 31.4813 1.19785C31.2312 1.11782 30.9814 1.04148 30.7312 0.969143C30.3334 0.851943 29.9162 1.07965 29.7993 1.47712C29.6821 1.87493 29.9098 2.29216 30.3073 2.40902L30.3261 2.40898Z" fill="#FEF288"/>
<path d="M19.4094 1.95168C19.4579 1.95637 19.5071 1.95637 19.5557 1.95168C19.7931 1.90413 20.0309 1.86027 20.2683 1.82042C20.6805 1.75312 20.9601 1.36435 20.8928 0.952135C20.8255 0.539918 20.4367 0.260324 20.0245 0.327625C19.7743 0.370151 19.5245 0.416365 19.2744 0.466256V0.466591C18.8602 0.506774 18.5571 0.875447 18.5973 1.28967C18.6378 1.70388 19.0065 2.00693 19.4207 1.96675L19.4094 1.95168Z" fill="#FEF288"/>
<path d="M0.855976 26.5658C1.05454 26.5504 1.23871 26.457 1.36797 26.3056C1.49756 26.1543 1.56152 25.9577 1.54612 25.7595C1.5287 25.5093 1.51363 25.2682 1.50124 25.0355H1.50091C1.48249 24.6213 1.13156 24.3005 0.717015 24.3193C0.302801 24.338 -0.0176579 24.6889 0.000755384 25.1032C0.000755384 25.3533 0.0171639 25.6108 0.0496443 25.8757C0.0791116 26.2678 0.40627 26.5705 0.799721 26.5695L0.855976 26.5658Z" fill="#FEF288"/>
<path d="M40.1527 8.3565C40.4406 8.65453 40.9158 8.66289 41.2142 8.37525C41.5125 8.08727 41.5209 7.61212 41.2329 7.31374C41.0528 7.12856 40.8703 6.94607 40.6854 6.76626C40.3847 6.50105 39.929 6.51913 39.6504 6.80677C39.3715 7.09475 39.3681 7.55082 39.6427 7.84248C39.8152 8.01259 39.9853 8.1837 40.1527 8.35648L40.1527 8.3565Z" fill="#FEF288"/>
<path d="M36.8442 5.53639C37.0418 5.67402 37.238 5.81533 37.4329 5.96032C37.7654 6.20778 38.2355 6.1388 38.483 5.80662C38.7308 5.47411 38.6618 5.00397 38.3293 4.75651C38.1217 4.60147 37.9117 4.45012 37.6991 4.30278L37.6994 4.30244C37.3595 4.06537 36.8921 4.14841 36.6546 4.48829C36.4175 4.82783 36.5006 5.29563 36.8405 5.53274L36.8442 5.53639Z" fill="#FEF288"/>
<path d="M9.15967 40.9306C8.84692 40.6788 8.39118 40.7176 8.12593 41.0193C7.86072 41.3207 7.87981 41.7775 8.16947 42.0557C8.36435 42.2258 8.56191 42.3933 8.76216 42.5584H8.76183C9.08195 42.8256 9.55812 42.7827 9.82531 42.4626C9.95356 42.3089 10.0155 42.1106 9.99742 41.9111C9.97968 41.7118 9.88324 41.5277 9.72954 41.3994C9.53197 41.2471 9.34211 41.0907 9.15962 40.9306L9.15967 40.9306Z" fill="#FEF288"/>
<path d="M47.541 28.6169C47.5909 28.3667 47.6361 28.1169 47.676 27.8668H47.6763C47.7426 27.458 47.4647 27.0725 47.0555 27.0062C46.6463 26.9399 46.2612 27.2179 46.1949 27.6267C46.1574 27.8769 46.1149 28.1143 46.0673 28.3393C46.0288 28.5348 46.07 28.7374 46.1808 28.9029C46.292 29.0679 46.4645 29.1825 46.6597 29.2206C47.0669 29.3007 47.4613 29.0351 47.541 28.6283L47.541 28.6169Z" fill="#FEF288"/>
<path d="M46.2764 30.6599C45.886 30.528 45.4624 30.7356 45.3275 31.125C45.2501 31.3551 45.1701 31.5838 45.0874 31.8115H45.0877C44.992 32.001 44.9812 32.2227 45.0583 32.4206C45.1356 32.6188 45.293 32.7749 45.4916 32.8502C45.6905 32.9256 45.9118 32.9128 46.1007 32.8157C46.2895 32.7186 46.4285 32.5455 46.4827 32.3402C46.5728 32.0901 46.6589 31.8403 46.7416 31.5902C46.8615 31.2054 46.6562 30.7949 46.2765 30.6599L46.2764 30.6599Z" fill="#FEF288"/>
<path d="M47.9834 24.7727V24.0002C47.9834 23.586 47.6476 23.2501 47.2334 23.2501C46.8191 23.2501 46.4833 23.586 46.4833 24.0002V24.7278C46.4706 25.1364 46.7873 25.4803 47.1959 25.5004H47.2334C47.6389 25.5007 47.9714 25.1782 47.9834 24.7727Z" fill="#FEF288"/>
<path d="M19.4469 46.0415C19.2095 45.9939 18.9731 45.9413 18.738 45.8841V45.8838C18.5435 45.8345 18.3375 45.8653 18.1658 45.9691C17.994 46.0729 17.8711 46.2414 17.8242 46.4366C17.7777 46.6318 17.8111 46.8374 17.9173 47.0079C18.0234 47.178 18.1935 47.2989 18.3894 47.3427C18.6396 47.4027 18.8894 47.4589 19.1395 47.5115C19.5454 47.5942 19.9418 47.3323 20.0245 46.9265C20.1072 46.5203 19.8454 46.1242 19.4395 46.0415L19.4469 46.0415Z" fill="#FEF288"/>
<path d="M15.9666 45.0293C15.7392 44.9419 15.5142 44.8518 15.2915 44.7594V44.759C14.9091 44.5986 14.4695 44.7781 14.3087 45.1605C14.1483 45.5426 14.3278 45.9826 14.7102 46.143C14.9603 46.2431 15.2001 46.3392 15.4301 46.4316C15.8176 46.579 16.2505 46.3841 16.3979 45.9967C16.5449 45.6092 16.35 45.1763 15.9626 45.0293L15.9666 45.0293Z" fill="#FEF288"/>
<path d="M23.043 46.4802C22.7929 46.4802 22.5518 46.4665 22.319 46.439C21.9048 46.4089 21.5449 46.7203 21.5147 47.1345C21.4846 47.5491 21.796 47.909 22.2105 47.9392C22.4607 47.9566 22.7182 47.9717 22.9831 47.9841H23.0132H23.0129C23.4274 47.9924 23.7696 47.6633 23.778 47.249C23.7864 46.8348 23.4572 46.4923 23.043 46.4839L23.043 46.4802Z" fill="#FEF288"/>
<path d="M12.6922 43.4659C12.4823 43.3434 12.2746 43.2185 12.0697 43.0909C11.7195 42.886 11.2698 42.9965 11.0548 43.3404C10.8394 43.6846 10.9369 44.1373 11.2744 44.3624C11.4944 44.5 11.7158 44.6336 11.9381 44.7635H11.9384C12.1109 44.8733 12.3205 44.9078 12.5191 44.8593C12.7176 44.8104 12.8878 44.6832 12.9902 44.506C13.0924 44.3292 13.1181 44.1179 13.0612 43.9217C13.0043 43.7255 12.8697 43.5607 12.6885 43.466L12.6922 43.4659Z" fill="#FEF288"/>
<path d="M30.2214 45.6214C29.989 45.6891 29.755 45.7527 29.5202 45.8126H29.5199C29.1181 45.9164 28.8763 46.326 28.9801 46.7278C29.0836 47.1296 29.4931 47.3714 29.8949 47.2679C30.1451 47.2053 30.3949 47.138 30.645 47.0653C31.0281 46.9391 31.2427 46.5322 31.1306 46.1448C31.0187 45.7574 30.6202 45.5277 30.2288 45.6251L30.2214 45.6214Z" fill="#FEF288"/>
<path d="M26.6655 46.3415C26.4153 46.369 26.1756 46.3941 25.9455 46.4165C25.5313 46.4339 25.2095 46.7842 25.2273 47.1984C25.245 47.6126 25.5949 47.9341 26.0092 47.9167H26.0728C26.3229 47.8942 26.5791 47.8678 26.8416 47.838L26.8419 47.8376C27.2562 47.7891 27.5525 47.4137 27.5036 46.9995C27.4551 46.5853 27.0797 46.2889 26.6655 46.3375L26.6655 46.3415Z" fill="#FEF288"/>
<path d="M33.6078 44.3426C33.3901 44.4451 33.1701 44.5452 32.9478 44.6427C32.7653 44.7223 32.622 44.871 32.549 45.0565C32.4763 45.2417 32.48 45.4483 32.5597 45.6308C32.7254 46.0109 33.1678 46.1847 33.5478 46.0189C33.7829 45.9164 34.0166 45.8103 34.249 45.7001H34.2493C34.6241 45.5233 34.7844 45.0756 34.6073 44.7009C34.4302 44.3259 33.9828 44.1655 33.6078 44.3426L33.6078 44.3426Z" fill="#FEF288"/>
<path d="M33.7132 3.70664C33.9308 3.81179 34.1468 3.92028 34.3621 4.0328C34.7298 4.22433 35.1828 4.08168 35.3747 3.71401C35.5662 3.34633 35.4236 2.89294 35.0559 2.70145C34.8258 2.58157 34.5944 2.46504 34.3621 2.35253C33.988 2.17338 33.5396 2.33143 33.3605 2.70513C33.1813 3.07917 33.3394 3.52754 33.7131 3.70672L33.7132 3.70664Z" fill="#FEF288"/>
<path d="M15.4002 10.962C15.5204 11.3297 15.9005 11.5456 16.2778 11.4606C19.0645 10.8268 20.9996 12.0605 22.5972 13.2678V13.2682C23.7896 14.2532 25.2155 14.9144 26.7377 15.1879H26.794C27.0733 15.126 27.3592 15.0982 27.6452 15.1056C28.6267 15.1287 29.5576 15.5448 30.2293 16.2603L30.4319 16.4739C30.4919 14.3292 27.964 13.8715 27.0077 13.7028V13.7031C25.7168 13.4717 24.5084 12.9083 23.5011 12.0683C22.2186 11.1044 19.882 9.3456 16.4806 9.90443C15.6294 8.95193 12.2051 5.01459 8.52238 0.289489C8.26755 -0.0376141 7.79574 -0.0962054 7.46824 0.15825C7.14109 0.41304 7.08249 0.884779 7.33699 1.21222C11.1436 6.09435 14.6767 10.1252 15.4003 10.9617L15.4002 10.962Z" fill="#FEF288"/>
<path d="M45.2307 35.1676C45.3288 34.9908 45.3516 34.7822 45.294 34.5886C45.2361 34.3951 45.1028 34.233 44.924 34.1392C44.7452 34.0451 44.5362 34.0274 44.344 34.0897C44.1518 34.1516 43.9927 34.2889 43.903 34.4697L43.8618 34.5411L44.9832 35.625C45.0619 35.4787 45.1483 35.325 45.2307 35.1676V35.1676Z" fill="#FEF288"/>
<path d="M38.3933 31.3053C38.4395 29.4947 38.0018 27.7045 37.1255 26.1192C36.2593 24.6604 35.0779 23.4719 33.9377 22.3245C33.5814 21.9496 33.2251 21.6084 32.8802 21.2444L29.1298 17.3035C28.731 16.8786 28.1784 16.6312 27.5958 16.6171C27.2114 16.6017 26.8303 16.6938 26.4951 16.8823C26.1602 17.0711 25.884 17.3494 25.6981 17.6858L24.5242 16.4411C24.129 16.0172 23.5809 15.7688 23.0015 15.751C22.4326 15.7333 21.8801 15.9439 21.4675 16.3359C21.2767 16.5221 21.1206 16.7404 21.0061 16.9811C20.611 16.575 20.0725 16.3393 19.5059 16.3249C18.939 16.3102 18.3898 16.5218 17.9796 16.9135C17.5661 17.3126 17.327 17.8586 17.3143 18.4331C17.3016 19.0076 17.5165 19.5641 17.912 19.9809L18.5871 20.6971C18.3336 20.8032 18.1009 20.9546 17.901 21.1434C17.4864 21.5418 17.2467 22.0882 17.2339 22.663C17.2212 23.2379 17.4369 23.7943 17.8333 24.2105L23.0839 29.7716L20.3237 29.2055C19.7038 29.0555 19.0492 29.1931 18.5423 29.5805C17.9469 30.0264 17.5789 30.7124 17.537 31.4554C17.4282 33.649 19.9971 34.1104 20.9649 34.2864C22.256 34.5175 23.4646 35.0809 24.4715 35.9213C25.5966 36.765 27.4718 38.205 30.2096 38.205C30.6355 38.2037 31.0608 38.1685 31.481 38.0999C32.3212 39.0561 35.7451 42.9746 39.4205 47.7105C39.6753 48.0376 40.1471 48.0962 40.4746 47.8418C40.8018 47.587 40.8604 47.1152 40.6059 46.7878C36.8029 41.913 33.2702 37.8594 32.5462 37.0383C32.426 36.6707 32.0459 36.4547 31.6685 36.5398C28.8969 37.1695 26.9805 35.9361 25.3679 34.7285C24.1741 33.7442 22.747 33.0842 21.2237 32.8124C19.2584 32.4599 19.0073 31.9875 19.0297 31.5338C19.0501 31.2372 19.1978 30.9636 19.4349 30.7838C19.5906 30.6586 19.7952 30.6114 19.9897 30.6563L24.2016 31.5224C25.023 31.6911 25.3528 31.275 25.4579 31.0875C25.5631 30.9 25.7429 30.3974 25.1616 29.7824L18.9209 23.179C18.6587 22.9159 18.6587 22.49 18.9209 22.2265C19.0913 22.0732 19.3143 21.9915 19.5433 21.9978C19.691 21.9982 19.8333 22.0514 19.9448 22.1478L26.0168 28.5751C26.3014 28.8764 26.7766 28.8898 27.0779 28.6052C27.2226 28.4682 27.3073 28.2798 27.3127 28.0805C27.3184 27.8817 27.2447 27.6885 27.1081 27.5439L18.9995 18.9532C18.7373 18.6897 18.7373 18.2641 18.9995 18.0007C19.1285 17.8785 19.3022 17.8145 19.4797 17.8246C19.6626 17.8296 19.8353 17.9079 19.9599 18.0418L28.0567 26.6248C28.3417 26.9262 28.8168 26.9396 29.1182 26.655C29.2629 26.518 29.3473 26.3295 29.353 26.1303C29.3586 25.9315 29.285 25.7383 29.1484 25.5936L22.3414 18.3752C22.1841 18.0511 22.2487 17.6631 22.5025 17.4077C22.6291 17.2955 22.7952 17.2389 22.9639 17.2503C23.1464 17.2557 23.3195 17.334 23.4438 17.4679L30.1423 24.6525C30.4296 24.9347 30.8887 24.9394 31.182 24.6635C31.4753 24.3873 31.4981 23.9286 31.2336 23.625L27.1081 19.2413C26.846 18.9782 26.846 18.5523 27.1081 18.2888C27.2297 18.1693 27.3951 18.1054 27.5656 18.1127C27.7484 18.1181 27.9212 18.1964 28.0457 18.3304L31.7174 22.2228L31.845 22.3316C32.1826 22.6842 32.5275 23.0327 32.8727 23.3816C33.9978 24.5065 35.063 25.5866 35.8354 26.8876L35.8351 26.8873C36.5594 28.2128 36.924 29.7046 36.8929 31.2146V31.2521C35.8126 33.7832 33.8551 33.502 33.6301 33.4758V33.4755C33.4346 33.438 33.232 33.4792 33.0672 33.5907C32.9021 33.7022 32.7883 33.8746 32.7505 34.0701C32.6718 34.4769 32.938 34.8706 33.3448 34.9493C34.3611 35.1482 36.4352 34.8968 37.7817 32.7818C39.0605 34.0229 42.042 36.9254 46.7226 41.5448V41.5451C47.0176 41.8361 47.4928 41.8327 47.7838 41.5374C48.0748 41.2425 48.0714 40.7674 47.7764 40.4764C42.4545 35.2491 39.3307 32.2118 38.3932 31.3046L38.3933 31.3053Z" fill="#FEF288"/>
<path d="M18.3248 27.9823C18.3248 27.9823 15.4334 24.9824 15.0881 24.6074C13.963 23.4825 12.8978 22.4024 12.1253 21.1014H12.1257C11.4014 19.7762 11.0367 18.2844 11.0679 16.7744V16.7369C12.1481 14.2058 14.1057 14.487 14.3307 14.5132C14.7378 14.5918 15.1316 14.3257 15.2103 13.9189C15.289 13.5118 15.0228 13.118 14.616 13.0393C13.6034 12.8405 11.5256 13.0919 10.1791 15.2069C8.91907 13.9808 5.93385 11.0747 1.25363 6.45501C0.954934 6.18884 0.499864 6.20391 0.219293 6.48916C-0.060979 6.77475 -0.0680165 7.22975 0.203555 7.52368C5.51033 12.7734 8.63056 15.7733 9.57995 16.6955C9.53374 18.5061 9.97139 20.2963 10.8477 21.8816C11.7026 23.3404 17.1032 28.875 17.1032 28.875C17.2652 28.6953 17.4437 28.5309 17.6359 28.3839C17.8509 28.2262 18.0823 28.0916 18.3257 27.9825L18.3248 27.9823Z" fill="#FEF288"/>
</svg>

<svg xmlns="http://www.w3.org/2000/svg" width="48" height="48" fill="#fef288" xmlns:v="https://vecta.io/nano"><path d="M15.809 2.979a.75.75 0 0 0 .263-.049l.682-.244h0a.75.75 0 1 0-.48-1.421l-.728.259a.75.75 0 0 0 .262 1.452v.004zM.136 21.241l-.075.769a.75.75 0 0 0 .668.81h.064a.75.75 0 0 0 .761-.694l.071-.724c.048-.414-.249-.789-.664-.836s-.789.25-.836.664l.011.011zm2.467-5.666a.75.75 0 0 0 .69-.454l.296-.664a.751.751 0 0 0-1.362-.634l-.319.709a.75.75 0 0 0 .694 1.043h0zm-1.717 1.87l-.199.75h0a.751.751 0 0 0 1.455.375l.188-.701a.75.75 0 1 0-1.444-.409v-.015zM13.739 3.11a.75.75 0 0 0-1.009-.311l-.195.109.945 1.174a.75.75 0 0 0 .259-.971h0zM2.116 29.337l-.161-.709a.75.75 0 1 0-1.467.307l.169.75a.751.751 0 1 0 1.459-.356v.008zm2.438 6.025a.75.75 0 0 0-1.294.75l.401.66A.75.75 0 0 0 4.933 36l-.379-.637h0zm-1.301-2.587l-.27-.671h0a.75.75 0 1 0-1.398.54l.27.731a.76.76 0 1 0 1.399-.6h0zM26.779 1.674l.72.101h.116 0c.414.032.776-.278.808-.692a.75.75 0 0 0-.692-.808l-.75-.109c-.414-.051-.791.244-.842.658s.244.791.658.842l-.019.007zm18.579 15.299l.214.694c.115.4.532.631.932.516s.631-.532.516-.932l-.229-.75h0a.75.75 0 1 0-1.425.469l-.007.004zm-2.9-5.82a.75.75 0 1 0 1.23-.859l-.454-.626a.75.75 0 1 0-1.204.896l.427.589h0zm1.824 3.128a.75.75 0 0 0 1.354-.649l-.345-.69h0a.751.751 0 1 0-1.331.694l.323.645h0zm2.554 5.358a.75.75 0 0 0-.627.855l.101.72h0a.75.75 0 0 0 .75.656h.094a.75.75 0 0 0 .653-.836l-.109-.75a.75.75 0 0 0-.863-.645h0zM6.632 38.332a.75.75 0 0 0-1.155.956l.503.589h0a.751.751 0 1 0 1.125-.994l-.472-.552h0zM23.13 1.502h.026.724a.75.75 0 0 0 0-1.5h-.773 0a.75.75 0 1 0 .027 1.5h-.004zm7.196.907l.694.218a.751.751 0 1 0 .461-1.429l-.75-.229a.751.751 0 0 0-.424 1.44h.019zm-10.917-.457a.76.76 0 0 0 .146 0l.713-.131c.412-.067.692-.456.625-.868s-.456-.692-.868-.625l-.75.139h0c-.414.04-.717.409-.677.823s.409.717.823.677l-.011-.015zM.856 26.566a.75.75 0 0 0 .69-.806l-.045-.724h0a.751.751 0 1 0-1.5.068 6.35 6.35 0 0 0 .049.772.75.75 0 0 0 .75.694l.056-.004zM40.153 8.357a.751.751 0 1 0 1.08-1.043l-.547-.547a.75.75 0 0 0-1.043 1.076l.51.514h0zm-3.309-2.821l.589.424a.75.75 0 0 0 .896-1.204l-.63-.454h0a.75.75 0 0 0-.859 1.23l.004.004zM9.16 40.931a.75.75 0 0 0-.99 1.125l.593.503h0c.32.267.796.224 1.063-.096.128-.154.19-.352.172-.552s-.114-.383-.268-.512l-.57-.469h0zm38.381-12.314l.135-.75h0a.75.75 0 1 0-1.481-.24l-.128.713a.75.75 0 1 0 1.473.289v-.011zm-1.265 2.043a.75.75 0 0 0-.949.465l-.24.686h0a.75.75 0 1 0 1.395.529l.259-.75a.75.75 0 0 0-.465-.93h0zm1.707-5.887V24a.75.75 0 1 0-1.5 0v.728a.75.75 0 0 0 .713.773h.038a.75.75 0 0 0 .75-.728zM19.447 46.042l-.709-.157h0a.75.75 0 0 0-.914.553.75.75 0 0 0 .565.906l.75.169a.75.75 0 1 0 .3-1.47h.007zm-3.48-1.013l-.675-.27h0a.751.751 0 0 0-.581 1.384l.72.289a.75.75 0 1 0 .533-1.402h.004zm7.076 1.451a6.28 6.28 0 0 1-.724-.041.752.752 0 0 0-.108 1.5l.773.045h.03 0a.75.75 0 1 0 .03-1.5v-.004zm-10.351-3.014l-.623-.375a.75.75 0 0 0-.795 1.272l.664.401h0a.75.75 0 1 0 .75-1.298h.004zm17.529 2.155l-.701.191h0a.751.751 0 1 0 .375 1.455l.75-.203a.75.75 0 0 0-.416-1.44l-.007-.004zm-3.555.721l-.72.075a.751.751 0 1 0 .064 1.5h.064l.769-.079h0c.414-.049.711-.424.662-.838s-.424-.711-.838-.662v.004zm6.942-1.999l-.66.3a.75.75 0 1 0 .6 1.376l.701-.319h0a.751.751 0 0 0-.642-1.358h0zm.105-40.636l.649.326a.751.751 0 0 0 .694-1.331l-.694-.349a.751.751 0 0 0-.649 1.354h0zM15.4 10.962a.75.75 0 0 0 .878.499c2.787-.634 4.722.6 6.319 1.807h0a9 9 0 0 0 4.14 1.92h.056c.279-.062.565-.09.851-.082a3.66 3.66 0 0 1 2.584 1.155l.203.214c.06-2.145-2.468-2.602-3.424-2.771h0a7.56 7.56 0 0 1-3.507-1.635c-1.283-.964-3.619-2.723-7.021-2.164-.851-.952-4.275-4.89-7.958-9.615a.75.75 0 0 0-1.184.922c3.807 4.882 7.34 8.913 8.063 9.749h0zm29.831 24.206a.75.75 0 1 0-1.328-.697l-.041.071 1.121 1.084.248-.457h0zm-6.838-3.863c.046-1.811-.392-3.601-1.268-5.186-.866-1.459-2.048-2.647-3.188-3.795l-1.057-1.08-3.75-3.941c-.399-.425-.951-.672-1.534-.686a2.09 2.09 0 0 0-1.101.265c-.336.188-.611.467-.797.803l-1.174-1.245a2.17 2.17 0 0 0-1.523-.69 2.13 2.13 0 0 0-1.534.585c-.191.186-.347.405-.461.645a2.17 2.17 0 0 0-1.5-.656 2.13 2.13 0 0 0-1.526.589 2.18 2.18 0 0 0-.068 3.067l.675.716c-.253.106-.486.258-.686.446-.415.398-.654.945-.667 1.52s.203 1.131.599 1.547l5.251 5.561-2.76-.566c-.62-.15-1.274-.012-1.781.375a2.52 2.52 0 0 0-1.005 1.875c-.109 2.194 2.46 2.655 3.428 2.831a7.55 7.55 0 0 1 3.507 1.635c1.125.844 3 2.284 5.738 2.284.426-.001.851-.036 1.271-.105a215.07 215.07 0 0 1 7.939 9.611.751.751 0 0 0 1.185-.923 230.78 230.78 0 0 0-8.06-9.749.75.75 0 0 0-.878-.498c-2.772.63-4.688-.604-6.301-1.811a9 9 0 0 0-4.144-1.916c-1.965-.352-2.216-.825-2.194-1.279a1.03 1.03 0 0 1 .405-.75.65.65 0 0 1 .555-.127l4.212.866c.821.169 1.151-.247 1.256-.435s.285-.69-.296-1.305L18.92 23.18c-.262-.263-.262-.689 0-.952.17-.153.393-.235.622-.229a.62.62 0 0 1 .402.15l6.072 6.427a.75.75 0 1 0 1.091-1.032L19 18.953c-.262-.264-.262-.689 0-.953.129-.122.303-.186.48-.176a.68.68 0 0 1 .48.217l8.097 8.583a.75.75 0 1 0 1.091-1.032l-6.807-7.218a.85.85 0 0 1 .161-.968.63.63 0 0 1 .461-.157.68.68 0 0 1 .48.218l6.698 7.185a.75.75 0 0 0 1.091-1.027l-4.125-4.384c-.262-.263-.262-.689 0-.953a.62.62 0 0 1 .457-.176.68.68 0 0 1 .48.218l3.672 3.892.128.109 1.028 1.05c1.125 1.125 2.19 2.205 2.963 3.506h0a8.65 8.65 0 0 1 1.058 4.327v.037c-1.08 2.531-3.038 2.25-3.263 2.224h0a.75.75 0 1 0-.286 1.474c1.016.199 3.09-.053 4.437-2.168l8.941 8.763h0a.751.751 0 1 0 1.054-1.069l-9.383-9.172h0zm-20.068-3.323l-3.237-3.375c-1.125-1.125-2.19-2.205-2.963-3.506h0a8.65 8.65 0 0 1-1.058-4.327v-.038c1.08-2.531 3.038-2.25 3.263-2.224a.751.751 0 0 0 .285-1.474c-1.013-.199-3.09.053-4.437 2.168L1.254 6.455a.75.75 0 0 0-1.034.034.75.75 0 0 0-.016 1.035l9.376 9.172c-.046 1.811.391 3.601 1.268 5.186.855 1.459 6.256 6.993 6.256 6.993a3.94 3.94 0 0 1 .533-.491 3.78 3.78 0 0 1 .69-.401h-.001z"/></svg>
